X:1
T:A Grecian Air
T:A Grecian Air
T:Anonymous
T:by IMSLP - Public Domain
C:Anonymous
Z:by IMSLP - Public Domain
%%score { ( 1 4 ) | ( 2 3 ) }
L:1/8
Q:1/4=116
M:2/4
K:D
V:1 treble nm="Piano" snm="Pf."
V:4 treble 
V:2 bass 
V:3 bass 
V:1
"^Allegretto" f/g/ |!p! [fa][fa][fa][fa] | [fa]2 [df]2 | ([fa][eg] [ce]3/2) [ce]/ | %4
!f! [df]/^e/f/e/ [df]2!p! f/g/ | [fa][fa][fa][fa] | [fa]2 [df]2 | ([fa][eg] [Ae]2) | [Fd]2 z F/G/ | %9
!pp! [FA][FA][FA][FA] | [FA]2 [DF]2 | ([FA][EG] [CE]7/4) [CE]/4 |!p! [DF]/^E/F/E/ [DF]2 F/!p!G/ | %13
!pp! [FA][FA][FA][FA] | [FA]2 [DF]2 | ([FA]/[EG]/ E2) | D2 z!f! e/f/ | gggg | g2 e2 | [df]2 d2 | %20
 e/^d/e/d/ e!p! e/f/ |!8va(! [gg'][gg'][gg'][gg'] | [gg']2 e'2 | e'/^d'/e'/d'/ e'e'/ z/ | %24
 a'2!8va)! z"^loco"!f! f/g/ | ad'ad' | a2 f2 | age>e | f/^e/f/e/ f F/G/ |!p! AdAd | A2 FA | AG EC | %32
 D2 z2 |] %33
V:2
 z |[K:treble] [FA][FA][FA][FA] | [FA]2 [DF]2 | ([FA][EG] [A,E]7/4) [A,E]/4 | %4
 [DF]/^E/F/E/ [DF]2 F/G/ | [FA][FA][FA][FA] | [FA]2 [DF]2 | ([FA][EG] [A,E]2) |[K:bass] [F,D]2 z2 | %9
 [F,A,][F,A,][F,A,][F,A,] | [F,A,]2 [D,F,]2 | ([F,A,][E,G,] [A,,E,]7/4)[A,,E,]/4 | %12
 [D,F,]/^E,/F,/E,/ [D,F,]2 F,/G,/ | [F,A,][F,A,][F,A,][F,A,] | [F,A,]2 [D,F,]2 | %15
 [F,A,]/[E,G,]/ A,2 | F,2 z2 |[I:staff -1] EEEE | E2 E2 | D2 D2 | EE E2 | EEEE | E2 E2 | %23
 [DF][DF][DF][DF] |[I:staff +1] A,2 z2 | x4 | x4 | x4 | x4 | [D,F,]A,[D,F,]A, | [D,F,]A,[D,F,]A, | %31
 [A,,E,]A, [A,,E,]A, | [D,F,]2 z2 |] %33
V:3
 x |[K:treble] x4 | x4 | x4 | x5 | x4 | x4 | x4 |[K:bass] x4 | x4 | x4 | x4 | x5 | x4 | x4 | %15
 x [A,,E,]2 | [D,,D,]2 x2 | A,A,A,A, | A,2 A,2 | F,2 F,2 | A,A, A,2 | A,A,A,A, | A,2 A,2 | %23
 A,A,A,A, | x4 | x4 | x4 | x4 | x4 | x4 | x4 | x4 | x4 |] %33
V:4
 x | x4 | x4 | x4 | x5 | x4 | x4 | x4 | x4 | x4 | x4 | x4 | x5 | x4 | x4 | x3 | x4 | x4 | x4 | x4 | %20
 x4 |!8va(! x4 | x4 | x4 | [ce]2!8va)! x2 | [DF]A[DF]A | [DF]A[DF]A | [DF]A[DF]A | [DF]A [DF]2 | %29
 x4 | x4 | x4 | x4 |] %33

